src/img/SocSVG.svg

<svg viewBox="0 0 66 66" fill="none" xmlns="http://www.w3.org/2000/svg">
    <g clip-path="url(#clip0_4811_3143)">
        <rect x="1" y="1.00391" width="64" height="64" rx="32" fill="#0D102B" />
        <path
            d="M63.4048 39.9973C64.4528 35.4409 64.4634 30.7072 63.4357 26.1461L57.1922 27.5529C58.0091 31.1783 58.0007 34.941 57.1677 38.5627L63.4048 39.9973ZM63.4357 26.1461C62.4081 21.5851 60.3685 17.3133 57.4678 13.6466L52.4485 17.6173C54.7542 20.5319 56.3754 23.9274 57.1922 27.5529L63.4357 26.1461ZM57.4678 13.6466C54.567 9.97987 50.8793 7.01193 46.6772 4.96218L43.8714 10.7143C47.2115 12.3436 50.1428 14.7027 52.4485 17.6173L57.4678 13.6466ZM46.6772 4.96218C42.4751 2.91243 37.8661 1.83328 33.1908 1.8045L33.1514 8.20438C36.8676 8.22725 40.5312 9.08504 43.8714 10.7143L46.6772 4.96218ZM33.1908 1.8045C28.5155 1.77572 23.8935 2.79804 19.6665 4.7959L22.4013 10.5822C25.7612 8.99412 29.4351 8.1815 33.1514 8.20438L33.1908 1.8045ZM19.6665 4.7959C15.4395 6.79376 11.7155 9.71607 8.76983 13.3468L13.7399 17.379C16.0813 14.4931 19.0414 12.1702 22.4013 10.5822L19.6665 4.7959ZM8.76983 13.3468C5.82418 16.9776 3.73217 21.2239 2.64845 25.7719L8.87414 27.2554C9.73557 23.6403 11.3984 20.265 13.7399 17.379L8.76983 13.3468ZM2.64845 25.7719C1.55043 30.38 1.65619 35.978 2.63404 40.4827L8.88839 39.1251C8.08609 35.4291 8.02702 30.8105 8.87414 27.2554L2.64845 25.7719Z"
            fill="#434875" />
        <path
            d="M23.2551 27.4467H20.3847L19.7127 29.2035H18.9062L21.3735 22.8675H22.2855L24.7431 29.2035H23.9271L23.2551 27.4467ZM22.9767 26.7267L22.1223 24.4803L21.8247 23.5971H21.8055L21.5271 24.4515L20.6631 26.7267H22.9767Z"
            fill="#434875" />
        <path d="M26.895 29.2035H26.127V22.8675H26.895V29.2035Z" fill="#434875" />
        <path
            d="M34.1708 27.5811C33.9724 28.1187 33.646 28.5411 33.1916 28.8483C32.7372 29.1491 32.2124 29.2995 31.6172 29.2995C31.022 29.2995 30.5036 29.1683 30.062 28.9059C29.6204 28.6371 29.278 28.2595 29.0348 27.7731C28.798 27.2803 28.6796 26.7011 28.6796 26.0355C28.6796 25.3763 28.798 24.8003 29.0348 24.3075C29.278 23.8147 29.6204 23.4371 30.062 23.1747C30.5036 22.9059 31.0156 22.7715 31.598 22.7715C32.206 22.7715 32.7148 22.8963 33.1244 23.1459C33.5404 23.3955 33.8508 23.7635 34.0556 24.2499L33.2972 24.6051C33.1564 24.2339 32.9516 23.9555 32.6828 23.7699C32.414 23.5843 32.0716 23.4915 31.6556 23.4915C31.2204 23.4915 30.8396 23.5939 30.5132 23.7987C30.1868 23.9971 29.934 24.2883 29.7548 24.6723C29.5756 25.0563 29.486 25.5107 29.486 26.0355C29.486 26.8291 29.6748 27.4531 30.0524 27.9075C30.4364 28.3555 30.958 28.5795 31.6172 28.5795C32.046 28.5795 32.4172 28.4707 32.7308 28.2531C33.0444 28.0355 33.2684 27.7155 33.4028 27.2931L34.1708 27.5811Z"
            fill="#434875" />
        <path
            d="M37.9776 22.8675C38.6176 22.8675 39.1328 23.0435 39.5232 23.3955C39.9136 23.7411 40.1088 24.2083 40.1088 24.7971C40.1088 25.3859 39.9136 25.8563 39.5232 26.2083C39.1328 26.5539 38.6176 26.7267 37.9776 26.7267H36.5088V29.2035H35.7408V22.8675H37.9776ZM37.8624 26.0067C38.3552 26.0067 38.7168 25.9075 38.9472 25.7091C39.184 25.5043 39.3024 25.2003 39.3024 24.7971C39.3024 24.3939 39.184 24.0931 38.9472 23.8947C38.7168 23.6899 38.3552 23.5875 37.8624 23.5875H36.5088V26.0067H37.8624Z"
            fill="#434875" />
        <path
            d="M44.7984 27.4467H41.928L41.256 29.2035H40.4496L42.9168 22.8675H43.8288L46.2864 29.2035H45.4704L44.7984 27.4467ZM44.52 26.7267L43.6656 24.4803L43.368 23.5971H43.3488L43.0704 24.4515L42.2064 26.7267H44.52Z"
            fill="#434875" />
        <path
            d="M19.0051 33.1636C19.7411 33.1636 20.3731 33.2876 20.9011 33.5356C21.4291 33.7756 21.8931 34.1596 22.2931 34.6876L21.1531 35.8036C20.9451 35.3716 20.6691 35.0516 20.3251 34.8436C19.9811 34.6276 19.5451 34.5196 19.0171 34.5196C18.5371 34.5196 18.1651 34.6116 17.9011 34.7956C17.6451 34.9716 17.5171 35.2076 17.5171 35.5036C17.5171 35.7756 17.6491 35.9916 17.9131 36.1516C18.1771 36.3116 18.6531 36.4516 19.3411 36.5716C20.0611 36.7076 20.6331 36.8756 21.0571 37.0756C21.4811 37.2756 21.7891 37.5276 21.9811 37.8316C22.1811 38.1276 22.2811 38.4996 22.2811 38.9476C22.2811 39.4356 22.1411 39.8596 21.8611 40.2196C21.5891 40.5716 21.2051 40.8436 20.7091 41.0356C20.2211 41.2276 19.6611 41.3236 19.0291 41.3236C18.1571 41.3236 17.4411 41.2036 16.8811 40.9636C16.3291 40.7156 15.8811 40.3436 15.5371 39.8476L16.5211 38.6716C16.8171 39.1596 17.1571 39.4996 17.5411 39.6916C17.9251 39.8756 18.4011 39.9676 18.9691 39.9676C19.4811 39.9676 19.8691 39.8876 20.1331 39.7276C20.4051 39.5676 20.5411 39.3396 20.5411 39.0436C20.5411 38.8276 20.4131 38.6476 20.1571 38.5036C19.9091 38.3596 19.4611 38.2236 18.8131 38.0956C18.0691 37.9436 17.4731 37.7636 17.0251 37.5556C16.5851 37.3476 16.2651 37.0916 16.0651 36.7876C15.8651 36.4836 15.7651 36.1076 15.7651 35.6596C15.7651 35.1876 15.8931 34.7636 16.1491 34.3876C16.4051 34.0036 16.7771 33.7036 17.2651 33.4876C17.7611 33.2716 18.3411 33.1636 19.0051 33.1636Z"
            fill="white" />
        <path
            d="M27.364 33.1636C28.14 33.1636 28.812 33.3276 29.38 33.6556C29.956 33.9836 30.396 34.4556 30.7 35.0716C31.012 35.6796 31.168 36.4036 31.168 37.2436C31.168 38.0836 31.012 38.8116 30.7 39.4276C30.396 40.0356 29.956 40.5036 29.38 40.8316C28.812 41.1596 28.14 41.3236 27.364 41.3236C26.588 41.3236 25.912 41.1596 25.336 40.8316C24.76 40.5036 24.316 40.0356 24.004 39.4276C23.7 38.8116 23.548 38.0836 23.548 37.2436C23.548 36.4036 23.7 35.6796 24.004 35.0716C24.316 34.4556 24.76 33.9836 25.336 33.6556C25.912 33.3276 26.588 33.1636 27.364 33.1636ZM27.364 34.5196C26.692 34.5196 26.172 34.7556 25.804 35.2276C25.444 35.6916 25.264 36.3636 25.264 37.2436C25.264 38.1236 25.444 38.7996 25.804 39.2716C26.172 39.7356 26.692 39.9676 27.364 39.9676C28.028 39.9676 28.54 39.7356 28.9 39.2716C29.268 38.7996 29.452 38.1236 29.452 37.2436C29.452 36.3636 29.268 35.6916 28.9 35.2276C28.54 34.7556 28.028 34.5196 27.364 34.5196Z"
            fill="white" />
        <path
            d="M39.7386 39.0196C39.5066 39.7796 39.0946 40.3556 38.5026 40.7476C37.9106 41.1316 37.2026 41.3236 36.3786 41.3236C35.6026 41.3236 34.9266 41.1596 34.3506 40.8316C33.7746 40.5036 33.3306 40.0356 33.0186 39.4276C32.7146 38.8116 32.5626 38.0836 32.5626 37.2436C32.5626 36.4036 32.7146 35.6796 33.0186 35.0716C33.3306 34.4556 33.7706 33.9836 34.3386 33.6556C34.9146 33.3276 35.5866 33.1636 36.3546 33.1636C37.1786 33.1636 37.8746 33.3356 38.4426 33.6796C39.0186 34.0236 39.4146 34.5356 39.6306 35.2156L38.1306 35.8516C38.0026 35.3796 37.8026 35.0396 37.5306 34.8316C37.2586 34.6236 36.8906 34.5196 36.4266 34.5196C35.7546 34.5196 35.2266 34.7556 34.8426 35.2276C34.4666 35.6996 34.2786 36.3716 34.2786 37.2436C34.2786 38.1156 34.4626 38.7876 34.8306 39.2596C35.1986 39.7316 35.7186 39.9676 36.3906 39.9676C37.3586 39.9676 37.9666 39.4996 38.2146 38.5636L39.7386 39.0196Z"
            fill="white" />
        <path
            d="M44.806 40.0756C45.774 39.4276 46.542 38.8596 47.11 38.3716C47.678 37.8836 48.09 37.4316 48.346 37.0156C48.602 36.5996 48.73 36.1876 48.73 35.7796C48.73 35.4036 48.614 35.0996 48.382 34.8676C48.158 34.6356 47.846 34.5196 47.446 34.5196C47.006 34.5196 46.658 34.6716 46.402 34.9756C46.146 35.2796 46.006 35.7116 45.982 36.2716L44.554 35.7316C44.61 34.9316 44.906 34.3036 45.442 33.8476C45.978 33.3916 46.678 33.1636 47.542 33.1636C48.158 33.1636 48.678 33.2796 49.102 33.5116C49.534 33.7436 49.858 34.0516 50.074 34.4356C50.29 34.8116 50.398 35.2276 50.398 35.6836C50.398 36.4276 50.118 37.1316 49.558 37.7956C48.998 38.4516 48.106 39.1556 46.882 39.9076V39.9196C47.346 39.8876 47.83 39.8716 48.334 39.8716H50.518V41.2036H44.806V40.0756Z"
            fill="white" />
        <path d="M63.8567 40.4125L57.7424 38.7953" stroke="white" stroke-width="0.8" />
        <path d="M2.59835 40.6L8.71264 38.9828" stroke="white" stroke-width="0.8" />
        <circle cx="33.0004" cy="33.0038" r="25.2" stroke="white" stroke-width="0.8" />
    </g>
    <rect x="1" y="1.00391" width="64" height="64" rx="32" stroke="white" />
    <defs>
        <clipPath id="clip0_4811_3143">
            <rect x="1" y="1.00391" width="64" height="64" rx="32" fill="white" />
        </clipPath>
    </defs>
</svg>

<svg viewBox="0 0 66 66" fill="none" xmlns="http://www.w3.org/2000/svg">
    <g clip-path="url(#a)">
        <rect x="1" y="1" width="64" height="64" rx="32" fill="#0D102B" />
        <path
            d="M63.4 40a31.2 31.2 0 0 0 .04-13.85l-6.25 1.4c.82 3.63.81 7.4-.02 11.01L63.4 40Zm.04-13.85a31.2 31.2 0 0 0-5.97-12.5l-5.02 3.97a24.8 24.8 0 0 1 4.74 9.93l6.25-1.4Zm-5.97-12.5a31.2 31.2 0 0 0-10.8-8.69l-2.8 5.75a24.8 24.8 0 0 1 8.58 6.9l5.02-3.96Zm-10.8-8.69A31.2 31.2 0 0 0 33.2 1.8l-.04 6.4c3.72.03 7.38.89 10.72 2.51l2.8-5.75ZM33.2 1.8c-4.67-.02-9.3 1-13.52 3l2.73 5.78A24.8 24.8 0 0 1 33.15 8.2l.04-6.4Zm-13.52 3a31.2 31.2 0 0 0-10.9 8.55l4.97 4.03a24.8 24.8 0 0 1 8.66-6.8L19.67 4.8Zm-10.9 8.55a31.2 31.2 0 0 0-6.12 12.42l6.22 1.49a24.8 24.8 0 0 1 4.87-9.88l-4.97-4.03ZM2.65 25.77c-1.1 4.61-1 10.2-.02 14.71l6.26-1.35c-.8-3.7-.86-8.32-.02-11.87l-6.22-1.49ZM23.26 27.45h-2.88l-.67 1.75h-.8l2.46-6.33h.92l2.45 6.33h-.81l-.67-1.75Zm-.28-.72-.86-2.25-.3-.88h-.01l-.28.85-.87 2.28h2.32ZM26.9 29.2h-.77v-6.33h.77v6.33ZM34.17 27.58c-.2.54-.52.96-.98 1.27-.45.3-.98.45-1.57.45a2.71 2.71 0 0 1-2.58-1.53 3.97 3.97 0 0 1-.36-1.73c0-.66.12-1.24.35-1.73.25-.5.59-.87 1.03-1.14.44-.26.96-.4 1.54-.4.6 0 1.11.13 1.52.38.42.25.73.61.94 1.1l-.76.36a1.72 1.72 0 0 0-.62-.84 1.77 1.77 0 0 0-1.02-.28 1.96 1.96 0 0 0-1.9 1.18 3.2 3.2 0 0 0-.27 1.37c0 .79.18 1.41.56 1.87.39.45.9.67 1.57.67a1.78 1.78 0 0 0 1.79-1.29l.76.3ZM37.98 22.87c.64 0 1.15.17 1.54.53.4.34.59.8.59 1.4 0 .59-.2 1.06-.59 1.4-.39.35-.9.53-1.54.53H36.5v2.47h-.77v-6.33h2.24ZM37.86 26c.5 0 .86-.1 1.09-.3.23-.2.35-.51.35-.91s-.12-.7-.35-.9c-.23-.21-.6-.31-1.09-.31h-1.35V26h1.35ZM44.8 27.45h-2.87l-.67 1.75h-.81l2.47-6.33h.9l2.47 6.33h-.82l-.67-1.75Zm-.28-.72-.85-2.25-.3-.88h-.02l-.28.85-.86 2.28h2.31Z"
            fill="#434875" />
        <path
            d="M19 33.16c.74 0 1.37.13 1.9.38.53.24 1 .62 1.4 1.15l-1.15 1.11a2.2 2.2 0 0 0-.82-.96 2.42 2.42 0 0 0-1.31-.32c-.48 0-.85.1-1.12.28a.82.82 0 0 0-.38.7c0 .28.13.5.4.65.26.16.73.3 1.42.42.72.14 1.3.3 1.72.5.42.2.73.46.92.76.2.3.3.67.3 1.12 0 .49-.14.91-.42 1.27a2.6 2.6 0 0 1-1.15.82c-.49.19-1.05.28-1.68.28a5.5 5.5 0 0 1-2.15-.36 3.2 3.2 0 0 1-1.34-1.11l.98-1.18c.3.49.64.83 1.02 1.02.39.19.86.28 1.43.28.51 0 .9-.08 1.16-.24.28-.16.41-.39.41-.69 0-.21-.13-.4-.38-.54s-.7-.28-1.35-.4a8.29 8.29 0 0 1-1.78-.54c-.44-.21-.76-.47-.96-.77a2 2 0 0 1-.3-1.13c0-.47.12-.9.38-1.27.26-.39.63-.69 1.12-.9.5-.22 1.07-.33 1.74-.33ZM27.36 33.16c.78 0 1.45.17 2.02.5.58.32 1.02.8 1.32 1.41.31.61.47 1.33.47 2.17 0 .84-.16 1.57-.47 2.19-.3.6-.74 1.07-1.32 1.4-.57.33-1.24.5-2.02.5-.77 0-1.45-.17-2.02-.5a3.32 3.32 0 0 1-1.34-1.4 4.88 4.88 0 0 1-.45-2.19c0-.84.15-1.56.45-2.17a3.3 3.3 0 0 1 1.34-1.41c.57-.33 1.25-.5 2.02-.5Zm0 1.36c-.67 0-1.19.24-1.56.7a3.24 3.24 0 0 0-.54 2.02c0 .88.18 1.56.54 2.03.37.47.9.7 1.56.7.67 0 1.18-.23 1.54-.7.37-.47.55-1.15.55-2.03 0-.88-.18-1.55-.55-2.01-.36-.47-.87-.71-1.54-.71ZM39.74 39.02a3.06 3.06 0 0 1-1.24 1.73c-.59.38-1.3.57-2.12.57-.78 0-1.45-.16-2.03-.49a3.32 3.32 0 0 1-1.33-1.4 4.88 4.88 0 0 1-.46-2.19c0-.84.15-1.56.46-2.17.31-.61.75-1.09 1.32-1.41a4 4 0 0 1 2.01-.5c.83 0 1.52.18 2.1.52.57.34.96.86 1.18 1.54l-1.5.63a1.84 1.84 0 0 0-.6-1.02c-.27-.2-.64-.31-1.1-.31-.68 0-1.2.24-1.59.7a3.17 3.17 0 0 0-.56 2.02c0 .88.18 1.55.55 2.02.37.47.89.7 1.56.7.97 0 1.58-.46 1.82-1.4l1.53.46ZM44.8 40.08c.97-.65 1.74-1.22 2.31-1.7.57-.5.98-.95 1.24-1.36.25-.42.38-.83.38-1.24 0-.38-.12-.68-.35-.91a1.24 1.24 0 0 0-.93-.35c-.44 0-.8.15-1.05.46-.25.3-.4.73-.42 1.3l-1.43-.55c.06-.8.36-1.43.9-1.88a3.13 3.13 0 0 1 2.1-.69c.6 0 1.13.12 1.55.35a2.36 2.36 0 0 1 1.3 2.17c0 .75-.28 1.45-.84 2.12a11.4 11.4 0 0 1-2.68 2.1v.02c.47-.03.95-.05 1.45-.05h2.19v1.33H44.8v-1.12Z"
            fill="#fff" />
        <path d="m63.86 40.41-6.12-1.61M2.6 40.6l6.11-1.62" stroke="#fff" stroke-width=".8" />
        <circle cx="33" cy="33" r="25.2" stroke="#fff" stroke-width=".8" />
    </g>
    <rect x="1" y="1" width="64" height="64" rx="32" stroke="#fff" />
    <defs>
        <clipPath id="a">
            <rect x="1" y="1" width="64" height="64" rx="32" fill="#fff" />
        </clipPath>
    </defs>
</svg>
